svg/file-icons/Vyper.svg

<svg xmlns="http://www.w3.org/2000/svg" width="512" height="512"><path d="m313 134-25-45h-64l-25.65 45L256 234l57-100zm71 122-64-111-57 100 64 110 57-99zM192 145l-64 111 57.65 99.85L249 245l-57-100zm64 111-64 111 64 111 64-111-64-111zM128 34H0l64 111 64-111zm320 111.15L512 34H384l64 111.15zM70 156l52 90 64-112-52-90-64 112zM378 44l-52 90 63.77 112 52.45-90.85L378 44z"/></svg>

<svg version="1.1" xmlns="http://www.w3.org/2000/svg" width="512px" height="512px"><path d="M313,134l-25-45h-64l-25.65,45L256,234L313,134z M384,256l-64-111l-57,100l64,110L384,256z M192,145l-64,111l57.65,99.85L249,245L192,145z M256,256l-64,111l64,111l64-111L256,256z M128,34H0l64,111L128,34z M448,145.15L512,34H384L448,145.15z M70,156l52,90l64-112l-52-90L70,156z M378,44l-52,90l63.77,112l52.45-90.85L378,44z"/></svg>
